X: 291
M: 9/8
L: 1/8
K: Gmix
V: 1
d |\
|: d |\
V: 2 clef=bass middle=d
z |\
g3 g3 g3 | g3 g3 g3 |\
g3 g3 g3 | a3 a3 a2 :|\
|: z |\
g3 g3 g3 |
g3 g3 g3 |\
g3 g3 g3 | f3 f3 f2 :|

